resources/svg/brush-line.svg

<svg fill="currentColor" viewBox="0 0 24 24" xmlns="http://www.w3.org/2000/svg"><path d="M15.4565 9.67491L15.3144 9.53285C14.6661 8.90783 13.8549 8.43357 12.9235 8.18399C10.0168 7.40515 7.22541 9.05261 6.43185 12.0142C6.38901 12.1741 6.36574 12.3536 6.3285 12.805C6.17423 14.675 5.73449 16.0696 4.5286 17.4841C6.78847 18.3726 9.46572 18.9984 11.5016 18.9984C13.9702 18.9984 16.1644 17.3393 16.8126 14.9201C17.3306 12.9868 16.7513 11.018 15.4565 9.67491ZM13.2886 6.21289L18.2278 2.3713C18.6259 2.06168 19.1922 2.09694 19.5488 2.45355L22.543 5.44774C22.8997 5.80435 22.9349 6.3707 22.6253 6.76879L18.7847 11.7067C19.0778 12.895 19.0836 14.1719 18.7444 15.4377C17.8463 18.7896 14.8142 20.9984 11.5016 20.9984C8 20.9984 3.5 19.4966 1 17.9966C4.97978 14.9966 4.04722 13.1864 4.5 11.4966C5.55843 7.54646 9.34224 5.23923 13.2886 6.21289ZM16.7015 8.09149C16.7673 8.15494 16.8319 8.21952 16.8952 8.2852L18.0297 9.41972L20.5046 6.23774L18.7589 4.49198L15.5769 6.96685L16.7015 8.09149Z"/></svg>

<svg xmlns="http://www.w3.org/2000/svg" viewBox="0 0 24 24" fill="currentColor">
    <g>
        <path fill="none" d="M0 0h24v24H0z"/>
        <path d="M15.456 9.678l-.142-.142a5.475 5.475 0 0 0-2.39-1.349c-2.907-.778-5.699.869-6.492 3.83-.043.16-.066.34-.104.791-.154 1.87-.594 3.265-1.8 4.68 2.26.888 4.938 1.514 6.974 1.514a5.505 5.505 0 0 0 5.31-4.078 5.497 5.497 0 0 0-1.356-5.246zM13.29 6.216l4.939-3.841a1 1 0 0 1 1.32.082l2.995 2.994a1 1 0 0 1 .082 1.321l-3.84 4.938a7.505 7.505 0 0 1-7.283 9.292C8 21.002 3.5 19.5 1 18c3.98-3 3.047-4.81 3.5-6.5 1.058-3.95 4.842-6.257 8.789-5.284zm3.413 1.879c.065.063.13.128.193.194l1.135 1.134 2.475-3.182-1.746-1.746-3.182 2.475 1.125 1.125z"/>
    </g>
</svg>
